images/logo.svg

<svg width="48" height="48" viewBox="0 0 48 48" fill="none" xmlns="http://www.w3.org/2000/svg">
<path d="M18.3 19.1L7.65 12.85L24 4L40.35 12.85L29.7 19.1C28.9333 18.3333 28.0583 17.7083 27.075 17.225C26.0917 16.7417 25.0667 16.5 24 16.5C22.9333 16.5 21.9083 16.7417 20.925 17.225C19.9417 17.7083 19.0667 18.3333 18.3 19.1ZM22.5 43.15L6 33.7V15.3L16.85 21.75C16.6833 22.1833 16.5833 22.5833 16.55 22.95C16.5167 23.3167 16.5 23.6667 16.5 24C16.5 25.7333 17.0667 27.275 18.2 28.625C19.3333 29.975 20.7667 30.8833 22.5 31.35V43.15ZM24 28.5C22.7667 28.5 21.7083 28.0583 20.825 27.175C19.9417 26.2917 19.5 25.2333 19.5 24C19.5 22.7333 19.9417 21.6667 20.825 20.8C21.7083 19.9333 22.7667 19.5 24 19.5C25.2667 19.5 26.3333 19.9333 27.2 20.8C28.0667 21.6667 28.5 22.7333 28.5 24C28.5 25.2333 28.0667 26.2917 27.2 27.175C26.3333 28.0583 25.2667 28.5 24 28.5ZM25.5 43.15V31.35C27.2333 30.8833 28.6667 29.975 29.8 28.625C30.9333 27.275 31.5 25.7333 31.5 24C31.5 23.6667 31.4833 23.325 31.45 22.975C31.4167 22.625 31.3167 22.2167 31.15 21.75L42 15.3V33.7L25.5 43.15Z" fill="#CDCDCD"/>
</svg>

<svg xmlns="http://www.w3.org/2000/svg" height="48" width="48"><path d="M18.3 19.1 7.65 12.85 24 4l16.35 8.85L29.7 19.1q-1.15-1.15-2.625-1.875Q25.6 16.5 24 16.5t-3.075.725Q19.45 17.95 18.3 19.1Zm4.2 24.05L6 33.7V15.3l10.85 6.45q-.25.65-.3 1.2-.05.55-.05 1.05 0 2.6 1.7 4.625t4.3 2.725ZM24 28.5q-1.85 0-3.175-1.325Q19.5 25.85 19.5 24q0-1.9 1.325-3.2Q22.15 19.5 24 19.5q1.9 0 3.2 1.3 1.3 1.3 1.3 3.2 0 1.85-1.3 3.175Q25.9 28.5 24 28.5Zm1.5 14.65v-11.8q2.6-.7 4.3-2.725Q31.5 26.6 31.5 24q0-.5-.05-1.025-.05-.525-.3-1.225L42 15.3v18.4Z"/></svg>
